X: 2380
T: Balada Za Angele
R: jig
M: 6/8
K: Amajor
M:11+7/16
L:1/16
|:cded e2d c4 dee edc2|cded e2d c4 cdB c5/B|
ABcB c2B A4 cdB c5/B|ABcB c2B A4 BAB A4:|
|:gaec f2e edcB cBA ABcA|gaec f2e edcB cBA AEA2:|
|:cded c2B BAcB GAE ABcA|cded c2B BAcB GAE AEA2:|

